public/sponsors/Axure.svg

<svg xmlns="http://www.w3.org/2000/svg" width="1200" height="800" fill="none" viewBox="0 0 1200 800"><path fill="#fff" d="M0 0h1200v800H0z"/><g fill-rule="evenodd" clip-path="url(#a)" clip-rule="evenodd"><path fill="#272727" d="M980.022 288.692c-37.993 0-59.457 7.335-71.781 24.525-12.875 17.955-15.463 46.297-15.463 86.214 0 78.36 12.124 111.116 87.244 111.116 9.023 0 39.868-.172 57.868-2.37 7.01-1.161 10.14-6.526 10.14-11.326v-8.654c0-6.734-5.08-11.817-11.84-11.817h-56.17c-42.384 0-50.027-9.99-51.113-66.79v-18.387c.36-58.124 8.003-68.344 51.115-68.344 39.758 0 47.378 9.07 48.698 60.241h-63.166v34.546h83.086c16.36 0 16.36-11.445 16.36-15.203v-11.029c-1.19-79.682-20.25-102.722-84.978-102.722m-109.397 3.045-.904-.238c-7.737-1.627-28.882-2.807-39.365-2.807-37.099 0-56.706 15.533-56.706 44.919v163.614c0 6.735 4.711 11.44 11.465 11.44h13.197c6.753 0 11.467-4.703 11.467-11.44v-160.61c0-7.252 1.835-13.756 23.971-13.756l32.779-.028c3.209.382 6.271-.504 8.629-2.503 2.575-2.169 3.991-5.337 3.991-8.909v-8.278c0-5.431-3.109-9.588-8.524-11.404m-158.438-.41H698.99c-6.751 0-11.467 4.703-11.467 11.44v173.616h-54.882c-33.948 0-47.721-2.159-47.721-56.265V302.767c0-6.734-4.717-11.44-11.467-11.44H560.63c-6.751 0-11.841 4.917-11.841 11.44v117.351c0 76.897 27.889 90.429 86.49 90.429 21.081 0 49.952 0 77.484-3.877l.638-.128c6.8-1.698 10.25-5.592 10.25-11.572V302.767c0-6.734-4.716-11.44-11.464-11.44"/><path fill="#74bb11" d="M508.085 296.701c-1.694-3.603-5.327-5.751-9.716-5.751h-16.963c-4.928 0-8.611 1.985-10.55 5.557l-25.141 36.733 22.009 30.098 38.426-55.12c4.218-5.124 2.758-9.763 1.935-11.517"/><path fill="#009cd9" d="m375.544 296.088-.022-.033c-3.833-5.107-8.932-5.107-10.608-5.107h-16.592c-4.251 0-7.732 1.953-9.55 5.354-1.87 3.483-1.474 7.668 1.114 11.545l61.464 85.205-70.678 98.578c-2.469 3.708-2.815 7.829-.95 11.31 1.829 3.4 5.312 5.348 9.555 5.348h16.96c4.362 0 8.197-2.264 10.115-5.83l79.111-109.013z"/><path fill="#eb2084" d="m516.523 492.492-49.311-67.674-21.691 29.902 38.997 52.047 1.014.443a12.2 12.2 0 0 0 4.919 1.076h16.586c4.007 0 7.408-1.78 9.334-4.889 1.973-3.187 2.028-7.158.152-10.905"/><path fill="#272727" d="M265.44 416.139v57.47c-16.794 2.577-42.392 3.148-51.116 3.148-38.592 0-42.821-10.544-42.821-32.939 0-20.956 7.842-27.682 32.265-27.682zm-53-127.45c-11.925 0-28.187.311-48.42 2.744l-.914.202c-5.894 1.677-8.879 5.548-8.879 11.506v8.275c0 7.056 4.392 11.44 11.465 11.44h46.751c37.641 0 52.997 10.198 52.997 35.198v24.295h-61.672c-48.2 0-68.768 18.382-68.768 61.466 0 48.02 21.289 66.732 75.932 66.732 22.134 0 62.877-1.721 77.936-6.313 12.698-3.525 12.698-13.224 12.698-16.411V355.8c0-45.157-29.154-67.111-89.123-67.111z"/></g><defs><clipPath id="a"><path fill="#fff" d="M135 267h930v265.236H135z"/></clipPath></defs></svg>

<svg width="1200" height="800" viewBox="0 0 1200 800" fill="none" xmlns="http://www.w3.org/2000/svg">
<rect width="1200" height="800" fill="white"/>
<g clip-path="url(#clip0_642_125)">
<path fill-rule="evenodd" clip-rule="evenodd" d="M980.022 288.692C942.029 288.692 920.565 296.027 908.241 313.217C895.366 331.172 892.778 359.514 892.778 399.431C892.778 477.791 904.902 510.547 980.022 510.547C989.045 510.547 1019.89 510.375 1037.89 508.177C1044.9 507.016 1048.03 501.651 1048.03 496.851V488.197C1048.03 481.463 1042.95 476.38 1036.19 476.38H980.02C937.636 476.38 929.993 466.39 928.907 409.59V391.203C929.267 333.079 936.91 322.859 980.022 322.859C1019.78 322.859 1027.4 331.929 1028.72 383.1H965.554V417.646H1048.64C1065 417.646 1065 406.201 1065 402.443V391.414C1063.81 311.732 1044.75 288.692 980.022 288.692ZM870.625 291.737L869.721 291.499C861.984 289.872 840.839 288.692 830.356 288.692C793.257 288.692 773.65 304.225 773.65 333.611V497.225C773.65 503.96 778.361 508.665 785.115 508.665H798.312C805.065 508.665 809.779 503.962 809.779 497.225V336.615C809.779 329.363 811.614 322.859 833.75 322.859L866.529 322.831C869.738 323.213 872.8 322.327 875.158 320.328C877.733 318.159 879.149 314.991 879.149 311.419V303.141C879.149 297.71 876.04 293.553 870.625 291.737ZM712.187 291.327H698.99C692.239 291.327 687.523 296.03 687.523 302.767V476.383H632.641C598.693 476.383 584.92 474.224 584.92 420.118V302.767C584.92 296.033 580.203 291.327 573.453 291.327H560.63C553.879 291.327 548.789 296.244 548.789 302.767V420.118C548.789 497.015 576.678 510.547 635.279 510.547C656.36 510.547 685.231 510.547 712.763 506.67L713.401 506.542C720.201 504.844 723.651 500.95 723.651 494.97V302.767C723.651 296.033 718.935 291.327 712.187 291.327Z" fill="#272727"/>
<path fill-rule="evenodd" clip-rule="evenodd" d="M508.085 296.701C506.391 293.098 502.758 290.95 498.369 290.95H481.406C476.478 290.95 472.795 292.935 470.856 296.507L445.715 333.24L467.724 363.338L506.15 308.218C510.368 303.094 508.908 298.455 508.085 296.701Z" fill="#74BB11"/>
<path fill-rule="evenodd" clip-rule="evenodd" d="M375.544 296.088L375.522 296.055C371.689 290.948 366.59 290.948 364.914 290.948H348.322C344.071 290.948 340.59 292.901 338.772 296.302C336.902 299.785 337.298 303.97 339.886 307.847L401.35 393.052L330.672 491.63C328.203 495.338 327.857 499.459 329.722 502.94C331.551 506.34 335.034 508.288 339.277 508.288H356.237C360.599 508.288 364.434 506.024 366.352 502.458L445.463 393.445L375.544 296.088Z" fill="#009CD9"/>
<path fill-rule="evenodd" clip-rule="evenodd" d="M516.523 492.492L467.212 424.818L445.521 454.72L484.518 506.767L485.532 507.21C487.08 507.906 488.755 508.272 490.451 508.286H507.037C511.044 508.286 514.445 506.506 516.371 503.397C518.344 500.21 518.399 496.239 516.523 492.492Z" fill="#EB2084"/>
<path fill-rule="evenodd" clip-rule="evenodd" d="M265.44 416.139V473.609C248.646 476.186 223.048 476.757 214.324 476.757C175.732 476.757 171.503 466.213 171.503 443.818C171.503 422.862 179.345 416.136 203.768 416.136L265.44 416.139ZM212.44 288.689C200.515 288.689 184.253 289 164.02 291.433L163.106 291.635C157.212 293.312 154.227 297.183 154.227 303.141V311.416C154.227 318.472 158.619 322.856 165.692 322.856H212.443C250.084 322.856 265.44 333.054 265.44 358.054V382.349H203.768C155.568 382.349 135 400.731 135 443.815C135 491.835 156.289 510.547 210.932 510.547C233.066 510.547 273.809 508.826 288.868 504.234C301.566 500.709 301.566 491.01 301.566 487.823V355.8C301.566 310.643 272.412 288.689 212.443 288.689H212.44Z" fill="#272727"/>
</g>
<defs>
<clipPath id="clip0_642_125">
<rect width="930" height="265.236" fill="white" transform="translate(135 267)"/>
</clipPath>
</defs>
</svg>
